X:1
T:Kavalierernes Sang
T:Kavalierernes Sang
T: Halfdan Kjerulf 
T:af "Woodstock", Walter Scott
C:af "Woodstock", Walter Scott arr. Halfdan Kjerulf
%%score [ 1 2 3 4 ]
L:1/8
Q:1/4=80
M:6/8
K:Eb
V:1 treble-8 nm="T1"
V:2 treble-8 nm="T2"
V:3 bass nm="B1"
V:4 bass nm="B2"
V:1
"^Allegro con brio\n""^m"!>(! e!>)! |{/e} d c d e B e | d c!<(! d e2 g!<)! | c3 (c=B) c | %4
w: Op,|fyl- der Po- ka- len til|bred- ful- de Maal; for|ham, som _ vi|
w: Skjønt|e- ne han van- drer, af|Fa- rer om- spændt, i|frem- me- * de|
w: Men|Ti- den skal kom- me da|Kon- gen i- gjen i|Høi- en- * loft|
 d2 G z z g | c3 (c=B) c | d3- d2"^" G | G3 D2 =B | =B3 G2!<(! d | d3 d2!<)! d | %10
w: els- ke, vi|drik- ke _ en|Skaal. _ Vor|Kon- ge det|gjæl- der, vor|Kon- ga saa|
w: Eg- ne af|slet In- * gen|kjendt, _ skjønt|Tung- en os|bin- des, vort|Hjer- te dog|
w: stan- der i-|blandt si- * ne|Mænd. _ Og|lydt skal da|raa- be hver|Rid- der og|
!>(! f3- f2!>)! B | g3/2 f/ e g3/2 f/ e | =e3/2 g/ f B2 B |!<(! g3/2 f/ e!<)! g3/2 f/ e | %14
w: prud! _ Om|Gift var i Glas- set vi|tøm- te det ud, om|Gift var i Glas- set vi|
w: slaar _ for|Kon- gen saa læn- ge som|Ver- den be- staar, for|Kon- gen saa læn- ge som|
w: Jarl: _ Et|run- gen- de Le- ve for|gjæ- ve Kong Carl! et|run- gen- de Le- ve for|
 =e3/2 g/ f B2 B | e3-!<(! e B c!<)! | _d d z z z c |!>(! g3!>)! f2 c |!>(! f3!>)! e2 e | %19
w: tøm- te det ud, om|Gift _ var i|Glas- set vi|tøm- te, vi|tøm- te, vi|
w: Ver- den be- staar, for|Kon- * gen, for|Kon- gen, for|Kon- gen saa|læn- ge som|
w: gjæ- ve Kong Carl, et|run- * gen- de|Le- ve, et|run- gen- de|Le- ve, for|
[M:2/4] (ed) c d |[M:6/8] e3- e2 |] %21
w: tøm- * te det|ud! _|
w: Ver- * den be-|staar! _|
w: gjæ- * ve Kong|Carl! _|
V:2
"^m"!>(! G!>)! | A A A G B G | A A!<(! A G2 G!<)! | c3 d2 c | =B2 G z z B | c3 d2 d | %6
w: Op,|fyl- der Po- ka- len til|bred- ful- de Maal; for|ham, som vi|els- ke, vi|drik- ke en|
w: Skjønt|e- ne han van- drer, af|Fa- rer om- spændt, i|frem- me- de|Eg- ne af|slet In- gen|
w: Men|Ti- den skal kom- me da|Kon- gen i- gjen i|Høi- en- loft|stan- der i-|blandt si- ne|
 =B3- B2"^" G | G3 D2 =B | =B3 G2!<(! d | d3 d2!<)! d |!>(! d3- d2!>)! B | B3/2 B/ B B3/2 B/ B | %12
w: Skaal. _ Vor|Kon- ge det|gjæl- der, vor|Kon- ga saa|prud! _ Om|Gift var i Glas- set vi|
w: kjendt, _ skjønt|Tung- en os|bin- des, vort|Hjer- te dog|slaar _ for|Kon- gen saa læn- ge som|
w: Mænd. _ Og|lydt skal da|raa- be hver|Rid- der og|Jarl: _ Et|run- gen- de Le- ve for|
 B3/2 B/ B F2 B |!<(! B3/2 B/ B!<)! B3/2 B/ B | B3/2 B/ B F2 F | G3-!<(! G B c!<)! | _d d z z z c | %17
w: tøm- te det ud, om|Gift var i Glas- set vi|tøm- te det ud, om|Gift _ var i|Glas- set vi|
w: Ver- den be- staar, for|Kon- gen saa læn- ge som|Ver- den be- staar, for|Kon- * gen, for|Kon- gen, for|
w: gjæ- ve Kong Carl! et|run- gen- de Le- ve for|gjæ- ve Kong Carl, et|run- * gen- de|Le- ve, et|
!>(! c3!>)! c2 c |!>(! B3!>)! B2 G |[M:2/4] A2 A A |[M:6/8] G3- G2 |] %21
w: tøm- te, vi|tøm- te, vi|tøm- te det|ud! _|
w: Kon- gen saa|læn- ge som|Ver- den be-|staar! _|
w: run- gen- de|Le- ve, for|gjæ- ve Kong|Carl! _|
V:3
"^m"!>(! B,!>)! | B, B, B, B, B, B, | B, B,!<(! B, B,2 G,!<)! | C3 ^F,2 F, | G,2 G, z z G, | %5
w: Op,|fyl- der Po- ka- len til|bred- ful- de Maal; for|ham, som vi|els- ke, vi|
w: Skjønt|e- ne han van- drer, af|Fa- rer om- spændt, i|frem- me- de|Eg- ne af|
w: Men|Ti- den skal kom- me da|Kon- gen i- gjen i|Høi- en- loft|stan- der i-|
 G,3 ^F,2 F, | G,3- G,2 z | z2 z2 z"^" G, | G,3 D,2!<(! =B, | =B, B, B, B, B, B,!<)! | %10
w: drik- ke en|Skaal. _|Vor|Kon- ge det|gjæl- der, vor Kon- ga saa|
w: slet In- gen|kjendt, _|skjønt|Tung- en os|bin- des, vort Hjer- te dog|
w: blandt si- ne|Mænd. _|Og|lydt skal da|raa- be hver Rid- der og|
!>(! B,3-!>)! B,2 A, | G,3/2 B,/ G, E3/2 B,/ G, | A,3/2 A,/ A, A,2 A, | %13
w: prud! _ Om|Gift var i Glas- set vi|tøm- te det ud, om|
w: slaar _ for|Kon- gen saa læn- ge som|Ver- den be- staar, for|
w: Jarl: _ Et|run- gen- de Le- ve for|gjæ- ve Kong Carl! et|
!<(! G,3/2 B,/ G,!<)! E3/2 B,/ G, | A,3/2 A,/ A, A,2 A, | G,3-!<(! G, B, C!<)! | _D D z z z C | %17
w: Gift var i Glas- set vi|tøm- te det ud, om|Gift _ var i|Glas- set vi|
w: Kon- gen saa læn- ge som|Ver- den be- staar, for|Kon- * gen, for|Kon- gen, for|
w: run- gen- de Le- ve for|gjæ- ve Kong Carl, et|run- * gen- de|Le- ve, et|
!>(! B,3!>)! A,2 A, |!>(! A,3!>)! G,2 B, |[M:2/4] B,2 B, B, |[M:6/8] B,3- B,2 |] %21
w: tøm- te, vi|tøm- te, vi|tøm- te det|ud! _|
w: Kon- gen saa|læn- ge som|Ver- den be-|staar! _|
w: run- gen- de|Le- ve, for|gjæ- ve Kong|Carl! _|
V:4
"^m"!>(! E,!>)! | F, F, F, E, G, E, | F, F,!<(! F, E,2 G,!<)! | C,3 A,,2 A,, | G,,2 G,, z z G,, | %5
w: Op,|fyl- der Po- ka- len til|bred- ful- de Maal; for|ham, som vi|els- ke, vi|
w: Skjønt|e- ne han van- drer, af|Fa- rer om- spændt, i|frem- me- de|Eg- ne af|
w: Men|Ti- den skal kom- me da|Kon- gen i- gjen i|Høi- en- loft|stan- der i-|
 E,2 C, A,,2 A,, | G,,3- G,,2 z | z2 z2 z"^" G, | G,3 D,2!<(! =B, | =B, =A, G, B, A, G,!<)! | %10
w: drik- * ke en|Skaal. _|Vor|Kon- ge det|gjæl- der, vor Kon- ga saa|
w: slet * In- gen|kjendt, _|skjønt|Tung- en os|bin- des, vort Hjer- te dog|
w: blandt * si- ne|Mænd. _|Og|lydt skal da|raa- be hver Rid- der og|
!>(! A,3-!>)! A,2 F, | E,3/2 E,/ E, E,3/2 E,/ E, | D,3/2 D,/ D, D,2 D, | %13
w: prud! _ Om|Gift var i Glas- set vi|tøm- te det ud, om|
w: slaar _ for|Kon- gen saa læn- ge som|Ver- den be- staar, for|
w: Jarl: _ Et|run- gen- de Le- ve for|gjæ- ve Kong Carl! et|
!<(! E,3/2 E,/ E,!<)! E,3/2 E,/ E, | D,3/2 D,/ D, D,2 F, | E,3-!<(! E, B,, C,!<)! | %16
w: Gift var i Glas- set vi|tøm- te det ud, om|Gift _ var i|
w: Kon- gen saa læn- ge som|Ver- den be- staar, for|Kon- * gen, for|
w: run- gen- de Le- ve for|gjæ- ve Kong Carl, et|run- * gen- de|
 _D, D, z z z C, |!>(! A,,3!>)! A,,2 A,, |!>(! B,,3!>)! B,,2 B,, |[M:2/4] B,,2 B,, B,, | %20
w: Glas- set vi|tøm- te, vi|tøm- te, vi|tøm- te det|
w: Kon- gen, for|Kon- gen saa|læn- ge som|Ver- den be-|
w: Le- ve, et|run- gen- de|Le- ve, for|gjæ- ve Kong|
[M:6/8] [E,,E,]3- [E,,E,]2 |] %21
w: ud! _|
w: staar! _|
w: Carl! _|

